packages/foundations/assets/icons/functional/images/editing/pen_14.svg

<svg width="14" height="14" viewBox="0 0 14 14" fill="none" xmlns="http://www.w3.org/2000/svg">
<g clip-path="url(#clip0_83_267)">
<path fill-rule="evenodd" clip-rule="evenodd" d="M9.9995 1.42081C10.3395 1.42081 10.6805 1.53481 10.9305 1.76081L12.2035 3.03481C12.4535 3.28481 12.5895 3.69281 12.5895 4.07981C12.5895 4.44281 12.4535 4.82981 12.2035 5.10181L5.7735 11.4878C5.5455 11.6928 5.3635 11.7608 5.0005 11.8518L2.2505 12.5558C2.1835 12.5788 2.1145 12.5788 2.0465 12.5788C1.96567 12.5822 1.88509 12.5677 1.81056 12.5362C1.73603 12.5047 1.66941 12.4571 1.6155 12.3968C1.48931 12.2695 1.41606 12.099 1.4105 11.9198V11.8058L2.0925 9.05581C2.2285 8.55581 2.2965 8.46581 2.5235 8.23781L8.9315 1.85281C9.07206 1.7137 9.23885 1.60389 9.42218 1.52973C9.60552 1.45557 9.80175 1.41855 9.9995 1.42081ZM7.9995 4.78381L3.9105 8.80681L5.1605 10.0788L9.2505 6.03381L7.9995 4.78381ZM9.9765 2.78381L8.9765 3.78381L10.2495 5.05681L11.2495 4.05681L9.9765 2.78381Z" fill="#1A1C1F"/>
</g>
<defs>
<clipPath id="clip0_83_267">
<rect width="14" height="14" fill="white"/>
</clipPath>
</defs>
</svg>

<svg xmlns="http://www.w3.org/2000/svg" width="14" height="14" fill="none"><g clip-path="url(#a)"><path fill="#1A1C1F" fill-rule="evenodd" d="M10 1.42c.34 0 .68.115.93.34l1.274 1.275c.25.25.385.658.385 1.045 0 .363-.136.75-.386 1.022l-6.43 6.386c-.228.205-.41.273-.772.364l-2.75.704c-.067.023-.136.023-.204.023a.55.55 0 0 1-.432-.182.7.7 0 0 1-.204-.477v-.114l.681-2.75c.136-.5.204-.59.431-.818l6.408-6.385A1.5 1.5 0 0 1 10 1.42M8 4.785 3.91 8.807l1.25 1.272 4.09-4.045zm1.976-2-1 1 1.273 1.273 1-1z" clip-rule="evenodd"/></g><defs><clipPath id="a"><path fill="#fff" d="M0 0h14v14H0z"/></clipPath></defs></svg>
